img/app.svg

<?xml version="1.0" encoding="UTF-8" standalone="no"?>
<svg
   xmlns:dc="http://purl.org/dc/elements/1.1/"
   xmlns:cc="http://creativecommons.org/ns#"
   xmlns:rdf="http://www.w3.org/1999/02/22-rdf-syntax-ns#"
   xmlns:svg="http://www.w3.org/2000/svg"
   xmlns="http://www.w3.org/2000/svg"
   xmlns:sodipodi="http://sodipodi.sourceforge.net/DTD/sodipodi-0.dtd"
   xmlns:inkscape="http://www.inkscape.org/namespaces/inkscape"
   width="61.076954mm"
   height="65.47831mm"
   viewBox="0 0 232.00976 232.00976"
   version="1.1"
   id="svg6"
   sodipodi:docname="app.svg"
   inkscape:version="0.92.5 (2060ec1f9f, 2020-04-08)">
  <metadata
     id="metadata12">
    <rdf:RDF>
      <cc:Work
         rdf:about="">
        <dc:format>image/svg+xml</dc:format>
        <dc:type
           rdf:resource="http://purl.org/dc/dcmitype/StillImage" />
      </cc:Work>
    </rdf:RDF>
  </metadata>
  <defs
     id="defs10" />
  <sodipodi:namedview
     pagecolor="#ffffff"
     bordercolor="#666666"
     borderopacity="1"
     objecttolerance="10"
     gridtolerance="10"
     guidetolerance="10"
     inkscape:pageopacity="0"
     inkscape:pageshadow="2"
     inkscape:window-width="1920"
     inkscape:window-height="1051"
     id="namedview8"
     showgrid="false"
     inkscape:zoom="1.9072474"
     inkscape:cx="94.227404"
     inkscape:cy="107.60777"
     inkscape:window-x="0"
     inkscape:window-y="-37"
     inkscape:window-maximized="1"
     inkscape:current-layer="svg6" />
  <path
     style="fill:#ffffff;fill-opacity:1;stroke-width:1"
     d="m 115.77012,0.52696814 c -29.661248,0.2425 -58.193054,3.45444816 -74.820554,11.09069786 0,0 -32.9772949,14.751176 -32.9772949,65.081176 0,11.525 -0.2240088,25.305078 0.1409912,39.918828 1.1975,49.21999 9.0231387,97.72855 54.5306387,109.77356 20.9825,5.55375 38.998329,6.71729 53.507079,5.9198 26.31125,-1.45875 41.08154,-9.38966 41.08154,-9.38966 L 156.3646,203.8308 c 0,0 -18.80257,5.92818 -39.91882,5.20569 -20.921249,-0.71751 -43.007851,-2.25564 -46.3916,-27.9419 -0.312501,-2.25625 -0.46875,-4.66962 -0.46875,-7.20336 0,-1e-5 20.538051,5.02026 46.56555,6.21276 15.915,0.73 30.83917,-0.93234 45.99792,-2.74109 29.07,-3.47125 54.38162,-21.38277 57.56287,-37.74901 5.0125,-25.78126 4.59961,-62.915048 4.59961,-62.915048 0,-50.33 -32.97546,-65.081176 -32.97546,-65.081176 C 174.70967,3.9814163 146.16013,0.76946814 116.49888,0.52696814 Z M 82.201396,39.85253 c 12.355,0 21.709864,4.748685 27.896114,14.247435 l 6.01502,10.081788 6.01501,-10.081788 c 6.185,-9.49875 15.53987,-14.247435 27.89612,-14.247435 10.6775,0 19.28083,3.753549 25.85083,11.076049 6.36875,7.322499 9.5398,17.220903 9.5398,29.675903 V 141.54564 H 161.27 V 82.395254 c 0,-12.46875 -5.246,-18.797607 -15.73975,-18.797607 -11.6025,0 -17.41699,7.506684 -17.41699,22.351684 V 118.32604 H 104.11179 V 85.949331 c 0,-14.845 -5.816316,-22.351684 -17.418816,-22.351684 -10.493751,0 -15.739747,6.328857 -15.739747,18.797607 V 141.54564 H 46.808941 V 80.604482 c 0,-12.455 3.171626,-22.353404 9.541625,-29.675903 6.56875,-7.3225 15.17208,-11.076049 25.85083,-11.076049 z"
     id="path2"
     inkscape:connector-curvature="0" />
</svg>

<svg width="61.077mm" height="65.478mm" version="1.1" viewBox="0 0 232.01 232.01" xmlns="http://www.w3.org/2000/svg" fill="#fff">
	<path d="m115.77 0.52697c-29.661 0.2425-58.193 3.4544-74.821 11.091 0 0-32.977 14.751-32.977 65.081 0 11.525-0.22401 25.305 0.14099 39.919 1.1975 49.22 9.0231 97.729 54.531 109.77 20.982 5.5538 38.998 6.7173 53.507 5.9198 26.311-1.4588 41.082-9.3897 41.082-9.3897l-0.86792-19.091s-18.803 5.9282-39.919 5.2057c-20.921-0.71751-43.008-2.2556-46.392-27.942-0.3125-2.2562-0.46875-4.6696-0.46875-7.2034 0-1e-5 20.538 5.0203 46.566 6.2128 15.915 0.73 30.839-0.93234 45.998-2.7411 29.07-3.4712 54.382-21.383 57.563-37.749 5.0125-25.781 4.5996-62.915 4.5996-62.915 0-50.33-32.975-65.081-32.975-65.081-16.626-7.6362-45.176-10.848-74.837-11.091zm-33.569 39.326c12.355 0 21.71 4.7487 27.896 14.247l6.015 10.082 6.015-10.082c6.185-9.4988 15.54-14.247 27.896-14.247 10.678 0 19.281 3.7535 25.851 11.076 6.3688 7.3225 9.5398 17.221 9.5398 29.676v60.941h-24.144v-59.15c0-12.469-5.246-18.798-15.74-18.798-11.602 0-17.417 7.5067-17.417 22.352v32.377h-24.001v-32.377c0-14.845-5.8163-22.352-17.419-22.352-10.494 0-15.74 6.3289-15.74 18.798v59.15h-24.144v-60.941c0-12.455 3.1716-22.353 9.5416-29.676 6.5688-7.3225 15.172-11.076 25.851-11.076z" />
</svg>
